X:1
T:Jael, 87.87 D
T:Jael, 87.87 D
T:Lewis Sperry Chafer, 1917
T:Public Domain Courtesy of the Cyber Hymnal™
C:Lewis Sperry Chafer, 1917
Z:Public Domain
Z:Courtesy of the Cyber Hymnal™
%%score ( 1 2 ) ( 3 4 )
L:1/8
Q:1/4=110
M:4/4
K:Eb
V:1 treble 
V:2 treble 
V:3 bass 
V:4 bass 
V:1
 [GB]>[EA] | [EG]2 [EG]2 [EG]2 [B,F]2 | [B,E]4 B,2 [GB]>[EA] | [EG]2 [EG]2 [DG]2 [DF]2 | %4
 E6 [EB]>[EB] | [Ec]2 [Ee]2 [Fd]2 [Dc]2 | [EB]4 [EG]2 [CE]>[CF] | [=B,G]2 [CG]2 [CA]2 [B,D]2 | %8
 [B,E]6 [GB]>[GB] | [DB]2 [DF]2 [EG]2 [DA]2 | [^Fc]4 [GB]2 [EG]>[EG] | [DF]2 [DB]2 [Ec]2 [Fd]2 | %12
 [DB]6 [GB]>[EA] | [EG]2 [EG]2 [DG]2 [DF]2 | [CE]4 !fermata![CF]2 [C^F]>[CF] | %15
 [B,G]2 [EB]2 [DF]2 [DG]2 | E6 |] %17
V:2
 x2 | x8 | x4 B,2 x2 | x8 | E6 x2 | x8 | x8 | x8 | x8 | x8 | x8 | x8 | x8 | x8 | x8 | x8 | E6 |] %17
V:3
 [E,E]>[E,C] | [E,B,]2 [B,,B,]2 [C,=A,]2 [D,_A,]2 | [E,G,]4 [E,G,]2 [E,E]>[E,C] | %3
 [E,B,]2 [B,,B,]2 [B,,B,]2 [B,,A,]2 | [E,G,]6 [E,G,]>[G,B,] | A,2 [A,C]2 [A,B,]2 [A,B,]2 | %6
 [G,B,]4 [E,B,]2 [E,G,]>[A,,F,] | [G,,D,]2 [C,E,]2 [A,,F,]2 [B,,A,]2 | [E,G,]6 [E,B,]>[E,B,] | %9
 [B,,B,]2 [A,B,]2 [G,B,]2 [F,B,]2 | [E,=A,]4 [E,B,]2 [E,B,]>[E,B,] | %11
 [F,B,]2 [G,B,]2 [F,=A,]2 [F,,A,]2 | [B,,B,]6 [E,E]>[E,C] | [E,B,]2 [B,,B,]2 [B,,B,]2 [B,,B,]2 | %14
 G,4 !fermata![A,,A,]2 [A,,E,]>[=A,,E,] | [B,,E,]2 [B,,G,]2 [B,,A,]2 [B,,B,]2 | [E,G,]6 |] %17
V:4
 x2 | x8 | x8 | x8 | x8 | A,2 x6 | x8 | x8 | x8 | x8 | x8 | x8 | x8 | x8 | C,2 B,,2 x4 | x8 | x6 |] %17

